icons/src/scalable/default/status/network-vpn-no-route-symbolic.svg

<?xml version="1.0" encoding="UTF-8" standalone="no"?>
<svg
   xmlns:dc="http://purl.org/dc/elements/1.1/"
   xmlns:cc="http://creativecommons.org/ns#"
   xmlns:rdf="http://www.w3.org/1999/02/22-rdf-syntax-ns#"
   xmlns:svg="http://www.w3.org/2000/svg"
   xmlns="http://www.w3.org/2000/svg"
   xmlns:sodipodi="http://sodipodi.sourceforge.net/DTD/sodipodi-0.dtd"
   xmlns:inkscape="http://www.inkscape.org/namespaces/inkscape"
   height="16"
   width="16"
   version="1.1"
   id="svg4"
   sodipodi:docname="network-vpn-no-route-symbolic.svg"
   inkscape:version="1.0.2 (e86c870879, 2021-01-15)">
  <metadata
     id="metadata10">
    <rdf:RDF>
      <cc:Work
         rdf:about="">
        <dc:format>image/svg+xml</dc:format>
        <dc:type
           rdf:resource="http://purl.org/dc/dcmitype/StillImage" />
        <dc:title></dc:title>
      </cc:Work>
    </rdf:RDF>
  </metadata>
  <defs
     id="defs8" />
  <sodipodi:namedview
     pagecolor="#ffffff"
     bordercolor="#666666"
     borderopacity="1"
     objecttolerance="10"
     gridtolerance="10"
     guidetolerance="10"
     inkscape:pageopacity="0"
     inkscape:pageshadow="2"
     inkscape:window-width="1920"
     inkscape:window-height="1043"
     id="namedview6"
     showgrid="true"
     inkscape:zoom="27.5"
     inkscape:cx="4.6050583"
     inkscape:cy="5.6569879"
     inkscape:window-x="1920"
     inkscape:window-y="0"
     inkscape:window-maximized="1"
     inkscape:current-layer="svg4">
    <inkscape:grid
       type="xygrid"
       id="grid1432" />
  </sodipodi:namedview>
  <path
     id="path2"
     style="line-height:125%;-inkscape-font-specification:Ubuntu;text-align:center;opacity:0.5;fill:#bebebe;fill-opacity:1"
     d="M 2.7128906 2 C 1.6548906 1.987 0.94507812 2.2241094 0.58007812 2.6621094 C 0.19707813 3.1181094 -7.4014868e-17 3.86625 0 4.90625 L 0 11.09375 C 0 12.13375 0.19707813 12.881891 0.58007812 13.337891 C 0.94507812 13.775891 1.6548906 14 2.7128906 14 L 6.2441406 14 C 6.0846639 13.69809 5.988233 13.3564 5.9863281 13.027344 C 5.9794285 12.508267 6.172578 12.005954 6.5253906 11.625 C 6.7968078 11.329226 7.2300923 11.236354 7.6367188 11.154297 L 6.5175781 11.154297 L 6.4921875 11 L 6 11 L 6 6 L 6 5 L 8 5 C 8.3228091 5 8.6237035 5.0850003 8.8945312 5.2226562 C 8.952217 5.1102959 8.9824219 4.9977646 8.9824219 4.8515625 C 8.9824219 4.5743399 8.9243737 4.4590815 8.7949219 4.3339844 L 8.7871094 4.328125 L 8.78125 4.3222656 C 8.6802555 4.2212712 8.4996318 4.1230469 8.0683594 4.1230469 C 7.5340112 4.1230469 7.0013179 4.2670408 6.4433594 4.5449219 L 5.2402344 5.4394531 L 5 5.0683594 L 5 8 C 5 9.651 3.65 11 2 11 L 1 11 L 1 5 L 2 5 L 2 10 C 3.11 10 4 9.11 4 8 L 4 5 L 4.9570312 5 L 3.5703125 2.8554688 L 4.7988281 2 L 2.7128906 2 z M 11.158203 2 C 11.279249 2.0715712 11.39498 2.1488051 11.488281 2.25 C 11.82614 2.6115567 12.069347 3.0518713 12.199219 3.5292969 C 12.319756 3.9238058 12.386719 4.3222873 12.386719 4.7148438 C 12.386719 4.8116339 12.365033 4.9044449 12.357422 5 L 13 5 C 14.099 5 15 5.901 15 7 L 15 11 L 14 11 L 14 7 C 14 6.442 13.558 6 13 6 L 12.123047 6 C 12.105414 6.0416869 12.099616 6.0881317 12.080078 6.1289062 L 12.076172 6.1367188 L 12.072266 6.1445312 C 12.05085 6.1872128 12.022658 6.2272965 12 6.2695312 L 12 11 L 11 11 L 11 7.5839844 C 10.87436 7.714271 10.759062 7.8544214 10.625 7.9765625 C 10.399977 8.1819065 10.198949 8.3927961 10.015625 8.6132812 C 10.01131 8.6184705 10.006246 8.6237074 10.001953 8.6289062 L 9.9863281 8.6484375 C 9.8238662 8.8366287 9.6890243 9.0450123 9.5761719 9.28125 L 9.5722656 9.2890625 L 9.5683594 9.296875 C 9.4899146 9.4537645 9.4414062 9.6460349 9.4414062 9.9003906 L 9.4414062 9.9179688 C 9.4419641 9.9199854 9.4436374 9.9829575 9.4492188 10.111328 L 9.4960938 11.154297 L 8.3632812 11.154297 C 8.7740285 11.236228 9.2125641 11.326677 9.4863281 11.630859 C 9.8152778 11.996217 10.017578 12.526508 10.017578 13.017578 C 10.017578 13.349557 9.918155 13.695054 9.7558594 14 L 13.287109 14 C 14.345109 14 15.056875 13.775891 15.421875 13.337891 C 15.804875 12.881891 16 12.13375 16 11.09375 L 16 4.90625 C 16 3.86625 15.804875 3.1181094 15.421875 2.6621094 C 15.056875 2.2241094 14.345109 2 13.287109 2 L 11.158203 2 z M 10.183594 2.8964844 C 10.185757 2.8985748 10.185345 2.902199 10.1875 2.9042969 C 10.189655 2.9064352 10.193164 2.9060549 10.195312 2.9082031 L 10.183594 2.8964844 z M 7 6 L 7 7.4648438 L 7.1875 7.2226562 C 7.1921293 7.2167307 7.1984832 7.212938 7.203125 7.2070312 C 7.3305108 7.0449324 7.4726165 6.9056378 7.609375 6.7578125 L 7.609375 6.7207031 L 7.9042969 6.4277344 C 8.0289966 6.3035816 8.1437388 6.1779841 8.2617188 6.0527344 C 8.1766365 6.0296668 8.0930443 6 8 6 L 7 6 z M 10.658203 6.1699219 C 10.655463 6.1753593 10.651201 6.180121 10.648438 6.1855469 C 10.64647 6.189206 10.646515 6.1936152 10.644531 6.1972656 L 10.658203 6.1699219 z M 8 12.970703 L 7.9941406 12.976562 L 7.9902344 12.982422 C 7.9855753 12.987421 7.9822942 12.993168 7.9824219 13 L 7.9824219 13.007812 L 7.9824219 13.017578 C 7.9824219 13.083914 7.9590188 13.021019 8 13.066406 L 8.0019531 13.066406 C 8.001816 13.066254 8.0050861 13.063426 8.0019531 13.0625 C 8.0294802 13.036625 8.0175781 13.076753 8.0175781 13.017578 C 8.0175781 12.957878 8.0255876 12.996194 8.0019531 12.976562 L 8.0019531 13 L 8 13 L 8 12.970703 z " />
  <path
     d="m 8.271,2.0370002 c -0.533,0 -1.037,0.061 -1.512,0.183 a 5.853,5.853 0 0 0 -1.167,0.446 l -0.658,0.458 0.566,0.876 0.452,-0.336 c 0.688,-0.35 1.394,-0.54 2.116,-0.54 0.607,0 1.09,0.16 1.421,0.491 0.327,0.316 0.4930002,0.7369999 0.4930002,1.2359997 0,0.311 -0.073,0.603 -0.2170002,0.868 -0.13,0.258 -0.299,0.503 -0.508,0.736 -0.205,0.227 -0.42,0.455 -0.648,0.682 v 10e-4 c -0.222,0.211 -0.433,0.444 -0.633,0.7 v 0.002 a 3.66,3.66 0 0 0 -0.492,0.786 2.378,2.378 0 0 0 -0.177,0.935 c 0,0.208 0.024,0.403 0.056,0.5940001 h 1.088 c -0.001,-0.023 -0.01,-0.044 -0.01,-0.068 v -0.1870001 c 0,-0.387 0.077,-0.74 0.232,-1.05 0.15,-0.314 0.336,-0.599 0.557,-0.855 v -0.002 c 0.218,-0.2639999 0.458,-0.515 0.7210002,-0.755 a 7.23,7.23 0 0 0 0.6999998,-0.734 c 0.21,-0.253 0.384,-0.522 0.527,-0.807 0.138,-0.288 0.209,-0.613 0.209,-0.9819997 0,-0.292 -0.048,-0.597 -0.147,-0.9139999 l -10e-4,-0.002 v -0.002 a 2.04,2.04 0 0 0 -0.482,-0.867 c -0.234,-0.255 -0.552,-0.466 -0.957,-0.63 v -0.002 c -0.385,-0.172 -0.895,-0.261 -1.528,-0.261 z m -0.27,9.9629998 c -0.326,0 -0.562,0.1 -0.743,0.3 a 1.025,1.025 0 0 0 -0.275,0.718 c 0,0.279 0.089,0.512 0.275,0.718 0.18,0.2 0.417,0.3 0.742,0.3 0.325,0 0.562,-0.099 0.743,-0.3 0.186,-0.206 0.275,-0.44 0.275,-0.718 0,-0.28 -0.089,-0.512 -0.275,-0.718 -0.18,-0.2 -0.418,-0.3 -0.743,-0.3 z"
     fill="#bebebe"
     font-family="Ubuntu"
     font-size="72.036px"
     font-weight="500"
     letter-spacing="0"
     style="line-height:125%;-inkscape-font-specification:'Ubuntu Medium';text-align:center"
     text-anchor="middle"
     word-spacing="0"
     id="path14" />
</svg>

<svg version="1.1" viewBox="0 0 16 16" xmlns="http://www.w3.org/2000/svg">
 <path d="m2.7129 2c-1.058-0.013-1.7678 0.22411-2.1328 0.66211-0.383 0.456-0.58008 1.2041-0.58008 2.2441v6.1875c0 1.04 0.19708 1.7881 0.58008 2.2441 0.365 0.438 1.0748 0.66211 2.1328 0.66211h3.5312c-0.15948-0.30191-0.25591-0.6436-0.25781-0.97266-0.0068996-0.51908 0.18625-1.0214 0.53906-1.4023 0.27142-0.29577 0.7047-0.38865 1.1113-0.4707h-1.1191l-0.025391-0.1543h-0.49219v-5-1h2c0.32281 0 0.6237 0.085 0.89453 0.22266 0.057686-0.11236 0.087891-0.22489 0.087891-0.37109 0-0.27722-0.058048-0.39248-0.1875-0.51758l-0.0078125-0.0058594-0.0058594-0.0058594c-0.10099-0.10099-0.28162-0.19922-0.71289-0.19922-0.53435 0-1.067 0.14399-1.625 0.42188l-1.2031 0.89453-0.24023-0.37109v2.9316c0 1.651-1.35 3-3 3h-1v-6h1v5c1.11 0 2-0.89 2-2v-3h0.95703l-1.3867-2.1445 1.2285-0.85547h-2.0859zm8.4453 0c0.12105 0.071571 0.23678 0.14881 0.33008 0.25 0.33786 0.36156 0.58107 0.80187 0.71094 1.2793 0.12054 0.39451 0.1875 0.79299 0.1875 1.1855 0 0.09679-0.021686 0.1896-0.029297 0.28516h0.64258c1.099 0 2 0.901 2 2v4h-1v-4c0-0.558-0.442-1-1-1h-0.87695c-0.017633 0.041687-0.023431 0.088132-0.042969 0.12891l-0.003906 0.0078126-0.003906 0.0078124c-0.021416 0.042682-0.049608 0.082765-0.072266 0.125v4.7305h-1v-3.416c-0.12564 0.13029-0.24094 0.27044-0.375 0.39258-0.22502 0.20534-0.42605 0.41623-0.60938 0.63672-0.004315 0.0051893-0.009379 0.010426-0.013672 0.015625l-0.015625 0.019531c-0.16246 0.18819-0.2973 0.39657-0.41016 0.63281l-0.0039063 0.0078125-0.0039062 0.0078125c-0.078445 0.15689-0.12695 0.34916-0.12695 0.60352v0.017578c5.579e-4 0.0020166 0.0022312 0.064989 0.0078126 0.19336l0.046875 1.043h-1.1328c0.41075 0.081931 0.84928 0.17238 1.123 0.47656 0.32895 0.36536 0.53125 0.89565 0.53125 1.3867 0 0.33198-0.099423 0.67748-0.26172 0.98242h3.5312c1.058 0 1.7698-0.22411 2.1348-0.66211 0.383-0.456 0.57812-1.2041 0.57812-2.2441v-6.1875c0-1.04-0.19512-1.7881-0.57812-2.2441-0.365-0.438-1.0768-0.66211-2.1348-0.66211h-2.1289zm-0.97461 0.89648c0.002163 0.0020904 0.001751 0.0057146 0.003906 0.0078125 0.002155 0.0021383 0.005664 0.001758 0.007812 0.0039062l-0.011718-0.011719zm-3.1836 3.1035v1.4648l0.1875-0.24219c0.0046293-0.0059255 0.010983-0.0097182 0.015625-0.015625 0.12739-0.1621 0.26949-0.30139 0.40625-0.44922v-0.037109l0.29492-0.29297c0.1247-0.12415 0.23944-0.24975 0.35742-0.375-0.085082-0.023068-0.16867-0.052734-0.26172-0.052734h-1zm3.6582 0.16992c-0.00274 0.0054374-0.007002 0.010199-0.009765 0.015625-0.001968 0.0036591-0.001923 0.0080683-0.003907 0.011719l0.013672-0.027344zm-2.6582 6.8008-0.0058594 0.005859-0.0039062 0.00586c-0.0046591 0.004999-0.0079402 0.010746-0.0078125 0.017578v0.007812 0.009766c0 0.066336-0.023403 0.003441 0.017578 0.048828h0.0019531c-1.371e-4 -1.52e-4 0.003133-0.00298 0-0.003906 0.027527-0.025875 0.015625 0.014253 0.015625-0.044922 0-0.0597 0.0080095-0.021384-0.015625-0.041016v0.023438h-0.0019531v-0.029297z" fill="#bebebe" opacity=".5"/>
 <path d="m8.271 2.037c-0.533 0-1.037 0.061-1.512 0.183a5.853 5.853 0 0 0-1.167 0.446l-0.658 0.458 0.566 0.876 0.452-0.336c0.688-0.35 1.394-0.54 2.116-0.54 0.607 0 1.09 0.16 1.421 0.491 0.327 0.316 0.493 0.737 0.493 1.236 0 0.311-0.073 0.603-0.217 0.868-0.13 0.258-0.299 0.503-0.508 0.736-0.205 0.227-0.42 0.455-0.648 0.682v1e-3c-0.222 0.211-0.433 0.444-0.633 0.7v2e-3a3.66 3.66 0 0 0-0.492 0.786 2.378 2.378 0 0 0-0.177 0.935c0 0.208 0.024 0.403 0.056 0.594h1.088c-1e-3 -0.023-0.01-0.044-0.01-0.068v-0.187c0-0.387 0.077-0.74 0.232-1.05 0.15-0.314 0.336-0.599 0.557-0.855v-2e-3c0.218-0.264 0.458-0.515 0.721-0.755a7.23 7.23 0 0 0 0.7-0.734c0.21-0.253 0.384-0.522 0.527-0.807 0.138-0.288 0.209-0.613 0.209-0.982 0-0.292-0.048-0.597-0.147-0.914l-1e-3 -2e-3v-2e-3a2.04 2.04 0 0 0-0.482-0.867c-0.234-0.255-0.552-0.466-0.957-0.63v-2e-3c-0.385-0.172-0.895-0.261-1.528-0.261zm-0.27 9.963c-0.326 0-0.562 0.1-0.743 0.3a1.025 1.025 0 0 0-0.275 0.718c0 0.279 0.089 0.512 0.275 0.718 0.18 0.2 0.417 0.3 0.742 0.3s0.562-0.099 0.743-0.3c0.186-0.206 0.275-0.44 0.275-0.718 0-0.28-0.089-0.512-0.275-0.718-0.18-0.2-0.418-0.3-0.743-0.3z" fill="#bebebe" font-family="Ubuntu" font-size="72.036px" font-weight="500" letter-spacing="0" text-anchor="middle" word-spacing="0"/>
</svg>
